X:6145
T:Soldier's Gratitude. CJF.165
O:england
M:C
L:1/8
Q:100
S: C.J.Fox MS, 1829/33, Beverley,E.Yorks.
R:Air
A:East Yorkshire
B:Kidson Coll.Mitchell Lib.M1805
N:The MS has a barline in the middle of this bar. "C J Fox" is on the
N:stave after the tune. - PJH.
K:C
G|G3e {e/}d>cd>e|c2G2G2c2|d2d2d2{edc}cd|/
e4g2zG|G3e d>cd>e|c2G2G2e2|
dg2B cAd^F|G4G2 G/A/G/F/|EG3c2c/d/c/B/|/
Ac3c2c2{dc}|B2G2c2e2|e4{fe}d2zd|
e3fg2B2|c3dhe2G2|A>Bc2c2ed|c6{dc}B2G/A/|/
B>cd2d2a>g|f4{gf}e2G2|A>GA>B""
c>Bc>d|e>de>fhg2c2|BA gf edcB|c6||


